!!!OTL: 1793. Klaglied eines Gefangenen.
!!!ARE: Europa, Mitteleuropa, Deutschland, Geinsheim am Rhein
!!!SCT: E1793A
!!!YEM: Copyright 1995, estate of Helmut Schaffrath.
**kern
*ICvox
*M3/4
*k[b-]
*F:
!LO:TX:a:t=Aus Geinsheim a. Rh.
{4f
=1
4f
4a
4a
=2
4a
4g}
{8eL
8fJ
=3
4g
4b-
4b-
=4
8b-L
8ccJ
4a
4r}
=5
{4cc
4cc
4dd
=6
4.cc
8b-
4a}
=7
{4b-
4a
4g
=8
8gL
8aJ
4f}
==
!!!AGN: Gefangenen - Lied, Klage
!!!ONB: ESAC (Essen Associative Code) Database: ERK3
!!!AMT: simple triple
!!!AIN: vox
!!!EED: Helmut Schaffrath
!!!EEV: 1.0
!!!GTL: Vermischter Inhalt.
!!!URL-scan: https://rosdok.uni-rostock.de/mcrviewer/recordIdentifier/rosdok_ppn745177999/iview2/phys_0572.iview2?x=-4.404412318552431&y=682.7893116176128&scale=0.6456904138606621&rotation=0&layout=singlePageLayout
!!!ENC: Anna Maria Matuszewska
!!!EEV: 2025/08/01
*-
